X:1
T:T
T:Femmes voulez vous / Du secret 
T:Lied / HS.81.Vanpelt.312
T:Een speelmansboek uit Maastricht/Tongeren (1786-1824) 
T:BRON: Lusthof-der-muziek.blogspot.com: Handschrift van VanPelt (1786-1824)  / Transcriptie door Ad Kwakernaat (2015) 
T:Naar een origineel van Solié Jean-Pierre (1755-1712) 
T:Genoteerd door Van der Elst Johan
T:Genoteerd door Van der Elst Johan
Z:Een speelmansboek uit Maastricht/Tongeren (1786-1824)
Z:Genoteerd door Van der Elst Johan
%%score { 1 2 }
L:1/8
Q:1/4=90
M:2/2
K:F
V:1 treble nm="Viool"
V:2 treble nm="Viool"
V:1
 c2 cc{c} BABc | A4 z2 cA | G2 GG AGFG | A4 FAAA | G2 G2 G2 G2 | G2 z G GEEc | cDFA G4 | C4 z GGG | %8
 A z A z B z B z | G4 z2 z G | A2 AF B2 BG | c2 (c/d/c/B/) A2 z F | d2 dd d2 ef | c2 c2 cd/c/BA | %14
 AGBG F2{A} G2 | F4 z4 | z4 z GGG | A2 A2 B2 B2 | G4 z2 z G | A2 AF B2 BG | c2 (c/d/c/B/) A2 z A | %21
 d2 dd d2 ef | c2 c2 cd/c/BA | AGBG F2 G2 | F2 c2 cd/c/BA | ddef F2{A} G2 | F4 z4 |] %27
V:2
 c'2 c'c'{c'} babc' | af-fa- a c'2 a | g2 gg agfg | a4 faaa | gg z g z g z g | g3 g geec' | %6
 c'dfa ga/g/f/e/f/d/ | cg{ag^f} g2 z g{agf} g2 | z a{ba^g} a2 z b{c'ba} b2 | z g g2 z g g2 | %10
 a2 a/^g/a/f/ b2 b/a/b/=g/ | c'/=b/c'/b/c'/d'/c'/b/ a/f/e/f/g/a/b/c'/ | d'2 d'd' d'2 e'f' | %13
 c'2 c'2 c'd'/c'/ba | agbg f2{a} g2 | fc'd'c' =bc'_ba | gg g2 z g g2 | z a{ag^f} g2 z b b2 | %18
 z g{ag^f} g2 z ggg | a2 a/^g/a/f/ b2 b/a/b/=g/ | c'/=b/c'/b/c'/d'/c'/_b/ a/f/e/f/g/a/b/c'/ | %21
 d'2 d'd' d'2 e'f' | c'2 c'2 c'd'/c'/ba | agbg f2 g2 | %24
"_BRON: Alamire uitgave \"Speelmansboek uit Maastricht\"\n vermeldt bij concordatie:\n              + Solié Jean-Pierre (1755-1712), \nLe secret \n(1796)\n              + La Clé du Caveau (Paris, 4de ed., 1848): 195\n              + Répertoire International des Sources Musicales, dl. A/II, manuscrits musicaux après 1600: 74822" f2 c'2 c'd'/c'/ba | %25
 d'd'e'f' f2{a} g2 | f2 [Fcf]2 z4 |] %27

